X:1
T:Barbro Pers Polska
R:Polska
Z:Henrik berg, 090103
O:lvdalen
S:Barbro Per
M:3/4
L:1/8
K:F
|:c>f- fag2-|g2e/2f/2e/2c/2d2-|d>B- B>dfd|1d>c B/2A/2B/2d/2c2:|2d>c B/2A/2B/2d/2 cz/2B/2|:[K:Gm]G>B-B>d fe|d>c- c>B- BA|G>B-B>d fe|d>c- c>B- BA|G2G>B A/2B/2A/2B/2|1^F>GG2cB:|2^F>GG4|:|
